X:1118
T:Swaggering Jig, The
R:slip jig
N:"Collected by Early"
B:O'Neill's 1118
Z:Transcribed by Michael Hogan
M:9/8
L:1/8
K:G
d|BGG AGE DGG|BAG GFG Azd|BGG AGE DGG|cBA BGE D2 :|
c|"~".Bdc dgf dBG|Bdd dBG Azc|Bdd dge dBG|cBA BGE Dzc|
"~".Bdc dgf dBG|Bdd dBG Azf|agfe dBd cBA|cBA BGE D2||
